X:1
T:Sonata for Violin and Haspsichord in A major (A = 415 Hz)
T:BWV 1015
T:J. S. Bach
%%score { 1 | ( 2 3 ) } { 4 | ( 5 6 ) }
L:1/8
Q:1/4=100
M:6/8
K:Ab
V:1 treble nm="ハープ"
V:2 bass 
V:3 bass 
V:4 treble nm="ハープ"
V:5 bass 
V:6 bass 
V:1
"^(Andante)" A2 E F/G/ TG3/2F/4G/4 | A/G/A/B/c/B/{Bc} dc/B/e | cea- a/g/ b2- | %3
 b/a/c'/b/a/g/ f/g/ Tg3/2f/4g/4 | a/g/b/a/g/f/ g3- | g/f/a/g/f/e/ =def- | %6
 f/e/g/f/a/g/ f/g/4e/4 T=d>e | e/B/c/A/B- B/e/B/G/A/F/ | G2 z z3 | e2 B c/=d/ Td3/2c/4d/4 | %10
 e/=d/e/f/g/f/ ag/f/b | gb/=a/c'/b/ a/f/ b2- | b =a2 b/f/d'/c'/b/_a/ | %13
 g/a/ Ta3/2g/4a/4 b/a/c'/b/a/g/ | a3- a/g/b/a/g/f/ | =efg- g/f/a/g/b/a/ | g/a/4f/4 T=e>f f3 | %17
 z3 z/ b/f/d/e/c/ | d/f/b/a/g/f/ e/=d/a/g/a- | a/b/g/e/f/=d/ e3 | z3 z/ a/e/c/d/B/ | %21
 c/e/a/_g/f/e/ d/c/g/f/g- | g/a/f/d/e/c/ d/f/d/B/c/A/ | B/d/B/G/A/F/ G/A/ TA3/2G/4A/4 | %24
 B/c/ Tc3/2B/4c/4 d/e/ Te/d/4e/4 Tf/e/4f/4 | Tg/f/4g/4 a>b g/f/a/g/f/e/ | _g6- | %27
 g/b/a/f/_g/e/ f3- | f/f/e/c/d/B/ c3- | c/c/B/G/A/F/ G/d/c/A/B/G/ | A/e/d/B/c/A/ B/f/e/c/d/B/ | %31
 c/B/d/c/B/A/ e/f/ TB>A | A/E/F/D/E- E/A/E/C/D/B,/ | _C3 B,3- | B,3- B,/f/a/g/f/e/ | %35
 a/e/f/d/e- e/a/e/c/d/B/ | c/d/Td/c/4d/4e- e/f/ TB>A | A/F/E/C/D/B,/ !fermata!C3 | z6 | %39
[M:3/4]"^Allegro assai"[Q:1/4=160] z A/B/ cc/d/ ef/g/ | ag/f/ ed cB | Ad/c/ df Be | cf/e/ fa =dg | %43
 ea/g/ ac' fb | g/f/g/a/ be =da | g/f/g/a/ be Bd | c/d/c/B/ A/G/F/E/ =De/=d/ | e4 d2- | d2 cB c2- | %49
 ca/g/ f/e/d/c/ B/A/B/G/ | A2 z2 e2 | e6- | e2 f2 g2- | g2 a2 b2- | b2 c'2 =d'2 | %55
 e'd'/c'/ b/a/g/f/ e/g/f/e/ | ae cA _g2 | fd AF f2- | f2 ed e2- | e2 dc d2- | d2 cB c2- | %61
 c2 BA Ge- | e/g/f/e/ d/c/B/A/ Gg- | g/b/a/g/ f/e/d/c/ Bb- | b/d'/c'/b/ a/g/f/e/ dd' | d'6 | %66
 c'>b Tg3 a | aA/B/ cc/d/ ef/g/ | ae cA eg | ae cA eg | ac' af =db | eB ce a=d | eg Tb4- | b6- | %74
 b6- | b2 z2 z2 | z B/c/ dd/e/ fg/=a/ | ba/_g/ fe dc | dB FD Cf | f2- f/b/a/_g/ f/b/e/=a/ | %80
 bd/c/ d2 z2 | z c/B/ c2 z2 | z B/A/ B2 z2 | z c AF c=e | fc AF c=e | Tf6- | f6- | fB GE B=d | %88
 eB GE B=d | eE/F/ GG/A/ Bc/d/ | eA/B/ cc/d/ ef/g/ | ac/d/ eA Gd | c/B/c/d/ eA E_G | %93
 F/_G/F/E/ D/C/B,/A,/ G,=G | A/B/A/G/ F/E/D/C/ B,B | c/d/c/B/ A/G/F/E/ Dd | EG Bd eg | EA ce ga | %98
 EG Bd eg | EA ce ga | C=E GB c=e | CF Ac =ef | C=E GB c=e | CF Ac =ef | A,C E_G Ac | A,D FA cd | %106
 A,C E_G Ac | A,D FA cd | G,B, EG Be | A,C EA ce | B,F B=d a2- | a/g/f/e/ f/g/a/b/ c'/=d'/e'/d'/ | %112
 (3B/g/e'/(3g/B/g/ (3e'/g/B/(3g/e'/g/ (3B/g/e'/(3g/e'/g/ | %113
 (3B/g/e'/(3g/B/g/ (3e'/g/B/(3g/e'/g/ (3B/g/e'/(3g/e'/g/ | %114
 (3c/e/a/(3e/c/e/ (3a/e/c/(3e/a/e/ (3c/e/a/(3e/a/e/ | %115
 (3c/e/a/(3e/c/e/ (3a/e/c/(3e/a/e/ (3c/e/a/(3e/a/e/ | %116
 (3A/f/=d'/(3f/A/f/ (3d'/f/A/(3f/d'/f/ (3A/f/d'/(3f/d'/f/ | %117
 (3A/f/=d'/(3f/A/f/ (3d'/f/A/(3f/d'/f/ (3A/f/d'/(3f/d'/f/ | %118
 (3B/g/e'/(3g/B/g/ (3e'/g/B/(3g/e'/g/ (3B/g/e'/(3g/e'/g/ | [Af]/e'/d'/c'/ b/a/g/f/ e/d/c/B/ | %120
 (3A/f/d'/(3f/A/f/ (3d'/f/A/(3f/d'/f/ (3A/f/d'/(3f/d'/f/ | [Ge]/d'/c'/b/ a/g/f/e/ d/c/B/A/ | %122
 (3G/e/c'/(3e/G/e/ (3c'/e/G/(3e/c'/e/ (3G/e/c'/(3e/c'/e/ | [Fd]/c'/b/a/ g/f/e/d/ c/B/A/G/ | %124
 (3F/d/b/(3d/F/d/ (3b/d/F/(3d/b/d/ (3F/d/b/(3d/b/d/ | [Ec]/b/a/g/ f/e/d/c/ B/A/G/F/ | %126
 (3E/c/a/(3c/E/c/ (3a/c/E/(3c/a/c/ (3E/c/a/(3c/a/c/ | %127
 (3=D/_c/a/(3c/D/c/ (3a/c/D/(3c/a/c/ (3D/c/a/(3c/a/c/ | %128
 (3=D/B/a/(3B/D/B/ (3a/B/D/(3B/a/B/ (3D/B/a/(3B/a/B/ | %129
 (3E/B/g/(3B/E/B/ (3g/B/E/(3B/g/B/ (3E/B/g/(3B/g/B/ | E/B/g/B/ z2 z2 | z A/B/ cc/d/ ef/g/ | %132
 ag/f/ ed cB | Ad/c/ df Be | cf/e/ fa =dg | ea/g/ ac' fb | g/f/g/a/ be =da | g/f/g/a/ be Bd | %138
 c/d/c/B/ A/G/F/E/ =De/=d/ | e4 d2- | d2 cB c2- | ca/g/ f/e/d/c/ B/A/B/G/ | A2 e4- | e6- | %144
 e2 f2 g2- | g2 a2 b2- | b2 c'2 =d'2 | e'd'/c'/ b/a/g/f/ e/g/f/e/ | ae cA _g2 | fd AF f2- | %150
 f2 ed e2- | e2 dc d2- | d2 cB c2- | c2 BA Ge- | e/g/f/e/ d/c/B/A/ Gg- | g/b/a/g/ f/e/d/c/ Bb- | %156
 b/d'/c'/b/ a/g/f/e/ dd' | d'6 | c'>b Tg3 a | aA/B/ cc/d/ ef/g/ | a2 z4 | %161
[M:4/4]"^Andante un poco"[Q:1/4=80] z c BA/G/ AG/F/ dd | dc=d=e f2- f/e/f/g/ | T=e2 fg a>b b>c' | %164
 c'2 z2 z2 e2- | ea/g/ af d>e c>B | Bc/d/ c/B/A/G/ FG A/G/A/B/ | G/F/E z c- ce/=d/ d2- | %168
 de/f/ e/=d/e/c/ a2- a/d/e/f/ | =B=A/G/ z g- g/e/=d/c/ f2- | f/=B/c/=d/ e/d/f/e/ d/c/B/c/ B>c | %171
 c2 z2 z G FE/=D/ | E=D/C/ AA AG=A=B | c2- c/=B/c/=d/ TB2 cd | e>f f>g g2 z2 | z2 B2- Be/=d/ ec | %176
 A>B G>F F2 z2 | z2 e2- ef/_g/ f/e/d/c/ | dB Ge/c/ =AF z2 | z2 c2- cf/=e/ fd | B>c A>G G2 z2 | %181
 z2 z F- FA/G/ G2- | GA/B/ A/G/A/F/ d2- d/G/A/B/ | =E=D/C/ z c- c/A/G/F/ B2- | %184
 B/=E/F/G/ A/G/B/A/ G/F/E/F/ E>F | F2 z2 z c BA/G/ | AG/F/ dd dc=d=e | f2- f/=e/f/g/ Te2 fg | %188
 a>b b>c' c'4- | c'/g/a/=e/ f/a/g/a/4f/4 !fermata!e4 | z8 |[M:2/2]"^Presto"[Q:1/4=200] A4 E2 A2 | %192
 BAGF E4 | Tc2 Bc dcBA | edcB A2 d2- | d2 c2 BcdB | cBAB c=def | gafg agfe | b4- bagf | Te8- | %200
 e4- edcB | c=d e4 d2 | Te8- | e6 f2 | Pg2 fg agfe | a8- | agab c'bc'd' | g2 a4 g2 | Ta8- | %209
 a4 g4- | g2 fe f4- | f4 e4- | e2 dc d4- | d4 c4- | c2 BA B4- | B4 A4- | A2 GF GABG | A4 E2 A2 | %218
 BAGF E4 | c2 Bc dcBA | edcB A2 d2- | d2 c2 BcdB | cBAB c=def | gafg agfe | b8- | b2 ab c'bag | %226
 d'6 c'b | c'=d' e'4 d'2 | e'4- e'bag | fefg agab | gfe=d cgfe | =dcde fefg | e=dcB Aedc | %233
 BABc dcde | cBAG FcBA | GFGA BABc | AGFG AcBA | G3 A F3 E | E8 | A4 E2 A2 | BAGF E4 | %241
 Tc2 Bc dcBA | edcB A2 d2- | d2 c2 BcdB | cBAB c=def | gafg agfe | b4- bagf | Te8- | e4- edcB | %249
 c=d e4 d2 | Te8- | e6 f2 | Pg2 fg agfe | a8- | agab c'bc'd' | g2 a4 g2 | Ta8- | a4 g4- | %258
 g2 fe f4- | f4 e4- | e2 dc d4- | d4 c4- | c2 BA B4- | B4 A4- | A2 GF GABG | A4 E2 A2 | BAGF E4 | %267
 c2 Bc dcBA | edcB A2 d2- | d2 c2 BcdB | cBAB c=def | gafg agfe | b8- | b2 ab c'bag | d'6 c'b | %275
 c'=d' e'4 d'2 | e'4- e'bag | fefg agab | gfe=d cgfe | =dcde fefg | e=dcB Aedc | BABc dcde | %282
 cBAG FcBA | GFGA BABc | AGFG AcBA | G3 A F3 E | E8 | z8 | z8 | z8 | z8 | e2 f_g fedc | a4 A2 c2 | %293
 d2 d/e/f e2 e/f/_g | f2 _ga gfed | _g2 g/f/e f2 f/e/d | e6 f2 | d2 cd edcB | cB=AG F2 f2- | %299
 fedc B2 b2- | ba_gf gefc | d3 e Tc3 B | B8 | z8 | z8 | b2 c'd' c'bag | e'4 e2 g2 | %307
 a2 a/b/c' b2 b/c'/d' | c'8- | c'2 d'e' d'c'b=a | b8- | b2 ab c'bag | a6 _g2 | f4- fBcd | %314
 edcB AGFE | D2 EF G2 AB | c2 de f2 ga | g2 ab agfe | e'8- | e'8- | e'8- | e'ABc defg | %322
 a2 a/g/f g2 g/f/e | f6 g2 | Te2 =de fedc | =dc=B=A G2 g2- | gfe=d c2 c'2- | c'bag afg=d | %328
 e3 f T=d3 c | c8 | z4 A4 | E2 A2 BAGF | TE8- | E4 z4 | z8 | z8 | e4 B2 e2 | fe=dc B4 | %338
 Pg2 fg agfe | bagf e2 a2- | a2 g2 fgaf | gfef gabc' | d'8- | d'2 b2 e'2 d'2 | c'8- | %345
 c'2 d'e' d'c'ba | b4 B4- | B2 cd cBAG | A4 E2 A2 | BAGF E4 | Pc2 de dcBA | edcB A2 f2 | %352
 c3 d TB3 A | A8 | z8 | z8 | z8 | z8 | e2 f_g fedc | a4 A2 c2 | d2 d/e/f e2 e/f/_g | f2 _ga gfed | %362
 _g2 g/f/e f2 f/e/d | e6 f2 | d2 cd edcB | cB=AG F2 f2- | fedc B2 b2- | ba_gf gefc | d3 e Tc3 B | %369
 B8 | z8 | z8 | b2 c'd' c'bag | e'4 e2 g2 | a2 a/b/c' b2 b/c'/d' | c'8- | c'2 d'e' d'c'b=a | b8- | %378
 b2 ab c'bag | a6 _g2 | f4- fBcd | edcB AGFE | D2 EF G2 AB | c2 de f2 ga | g2 ab agfe | e'8- | %386
 e'8- | e'8- | e'ABc defg | a2 a/g/f g2 g/f/e | f6 g2 | Te2 =de fedc | =dc=B=A G2 g2- | %393
 gfe=d c2 c'2- | c'bag afg=d | e3 f T=d3 c | c8 | z4 A4 | E2 A2 BAGF | TE8- | E4 z4 | z8 | z8 | %403
 e4 B2 e2 | fe=dc B4 | Pg2 fg agfe | bagf e2 a2- | a2 g2 fgaf | gfef gabc' | d'8- | %410
 d'2 b2 e'2 d'2 | c'8- | c'2 d'e' d'c'ba | b4 B4- | B2 cd cBAG | A4 E2 A2 | BAGF E4 | Pc2 de dcBA | %418
 edcB A2 f2 | c3 d TB3 A | A8 |] %421
V:2
 A,,6- | A,,6 | A,2 E, F,/G,/ TG,3/2F,/4G,/4 | A,3- A,/G,/C/B,/A,/G,/ | F,B,B,, E,/B,/E/=D/C/B,/ | %5
 A,F,A, B,C=D | ECA,- A,B,B,, | E,2 z E,,2 z | E,/=D,/E,/F,/G,/F,/ A,G,/F,/B, | G,2 z F,B,B,, | %10
 E,2 B,, C,/=D,/ TD,3/2C,/4D,/4 | E,3- E,/D,/_G,/F,/E,/D,/ | C,F,F,, B,,3- | %13
 B,,/A,,/D,/C,/B,,/A,,/ G,,C,C,, | F,,/C,/F,/E,/D,/C,/ B,,G,,B,, | C,=D,=E, F,_D,B,,- | %16
 B,,C,C,, F,,2 F, | G,/=A,/ TA,>G, B,3- | B,2 B,, C,/=D,/ TD,3/2C,/4D,/4 | E,3- E,2 E, | %20
 F,/G,/ TG,>F, A,3- | A,2 A,, B,,/C,/ TC,3/2B,,/4C,/4 | D,6- | D,3- D,/E,/D,/B,,/C,/A,,/ | %24
 G,,/B,,/A,,/F,,/_G,,/E,,/ B,,3- | B,,/E/D/B,/C/A,/ EE,D, | %26
 C,/E,/D,/B,,/C,/A,,/ D,/E,/ TE,3/2D,/4E,/4 | F,3- F,/A,/D/C/B,/A,/ | %28
 G,/F,/A,/G,/F,/E,/ A,/E,/A,/G,/F,/E,/ | =D, TD,3/2C,/4D,/4 E, TE,3/2D,/4=E,/4 | %30
 F, TF,3/2=E,/4F,/4 G, TG,3/2F,/4G,/4 | A,/F,/E,/C,/D,/B,,/ C,/D,/E,E,, | A,,2 z A,2 z | %33
 z/ _G,/_F,/E,/=D,/E,/ D,/C,/E,/D,/C,/B,,/ | D,6 | C,2 z E,2 z | A,F,C, D,E,E,, | !fermata!A,,6 | %38
 z6 |[M:3/4] A,,2 A,2 B,2 | C2 C,D, E,C, | F,2 F,,2 G,,2 | A,,2 A,2 B,2 | C2 C,2 =D,2 | E,4 B,,2 | %45
 C,B,,/A,,/ G,,F,, E,,2 | A,,2 F,,2 B,,2 | E,,2 E,2 F,2 | G,2 G,,2 A,,2 | B,,2 D,2 E,2 | %50
 A,A,,/B,,/ C,C,/D,/ E,F,/G,/ | A,G,/F,/ E,D, C,B,, | A,,D,/C,/ D,F, B,,E, | C,F,/E,/ F,A, =D,G, | %54
 E,A,/G,/ A,C F,B, | G,E, G,B, ED | C2 z2 z2 | z/ D,/E,/F,/ _G,/A,/B,/C/ D/B,/A,/=G,/ | %58
 C/ z/ z z/ D/C/B,/ A,/F,/G,/A,/ | B,/B,,/C,/D,/ E,/F,/G,/A,/ B,/G,/F,/E,/ | A,2 A,,B,, A,,G,, | %61
 F,,A, G,F, E,D, | C,2 z/ B,,/C,/D,/ E,/D,/C,/B,,/ | A,,2 z/ C/B,/A,/ G,/F,/E,/=D,/ | %64
 G,2 z/ F,/G,/A,/ B,/A,/G,/F,/ | E,E,, G,,B,, E,G, | A,D, E,2 E,,2 | %67
 A,,A,,/B,,/ C,C,/D,/ E,F,/G,/ | A,2 z2 z2 | A,,2 z2 z2 | A,,2 z2 A,2 | G,2 z2 F,2 | %72
 E,/G,/B,/C/ B,/C/B,/C/ =D,/F,/A,/B,/ | E,/G,/B,/C/ B,/C/B,/C/ =D,/F,/A,/B,/ | %74
 E,/G,/B,/C/ B,/C/B,/C/ F,/A,/C/=D/ | G,/B,/=D/E/ D/E/D/E/ =A,/C/E/F/ | %76
 D z z/ D/C/B,/ =A,/G,/F,/E,/ | D,C, D,E, F,F,, | B,,2 z/ D,/C,/B,,/ =A,,/G,,/F,,/E,,/ | %79
 D,,C,, D,,E,, F,,F, | B,,B,/A,/ B,D E,G, | A,,A,/G,/ A,C D,F, | G,,G,/F,/ G,B, C,=E, | %83
 F,/A,/C/D/ C/D/C/D/ =E,/G,/B,/C/ | F,/A,/C/D/ C/D/C/D/ =E,/G,/B,/C/ | A,F, D,B,, F,=A, | %86
 B,F, D,B,, F,=A, | TB,6- | B,6 | E,3 D,/C,/ D,C,/B,,/ | C,2 C2 B,2 | %91
 A,A,,/B,,/ C,C,/D,/ E,F,/G,/ | A,G,/F,/ E,D, C,B,, | A,,D,/C,/ D,F, B,,E, | C,F,/E,/ F,A, D,G, | %95
 E,A,/G,/ A,C F,B, | G,/B,/E/F/ E/F/E/F/ G,/B,/E/F/ | A,/C/E/F/ E/F/E/F/ A,/C/E/F/ | %98
 G,/B,/E/F/ E/F/E/F/ G,/B,/E/F/ | A,/C/E/F/ E/F/E/F/ A,/C/E/F/ | =E,/G,/C/D/ C/D/C/D/ E,/G,/C/D/ | %101
 F,/A,/C/D/ C/D/C/D/ F,/A,/C/D/ | =E,/G,/C/D/ C/D/C/D/ E,/G,/C/D/ | %103
 F,/A,/C/D/ C/D/C/D/ F,/A,/C/D/ | C,/E,/A,/B,/ A,/B,/A,/B,/ C,/E,/A,/B,/ | %105
 D,/F,/A,/B,/ A,/B,/A,/B,/ D,/F,/A,/B,/ | C,/E,/A,/B,/ A,/B,/A,/B,/ C,/E,/A,/B,/ | %107
 D,/F,/A,/B,/ A,/B,/A,/B,/ D,/F,/A,/B,/ | D,/E,/G,/A,/ G,/A,/G,/A,/ D,/E,/G,/A,/ | %109
 C,/E,/A,/B,/ A,/B,/A,/B,/ C,/E,/A,/B,/ | =D,/F,/A,/B,/ A,/B,/A,/B,/ D,/F,/A,/B,/ | E,6 | E,6- | %113
 E,6 | E,6- | E,6 | E,6- | E,6 | E,6- | E,6 | E,6- | E,6 | E,6- | E,6 | E,6- | E,6 | E,6- | E,6 | %128
 E,6- | E,2 z2 z2 | z6 | A,,2 A,2 B,2 | C2 C,D, E,C, | F,2 F,,2 G,,2 | A,,2 A,2 B,2 | C2 C,2 =D,2 | %136
 E,4 B,,2 | C,B,,/A,,/ G,,F,, E,,2 | A,,2 F,,2 B,,2 | E,,2 E,2 F,2 | G,2 G,,2 A,,2 | B,,2 D,2 E,2 | %142
 A,A,,/B,,/ C,C,/D,/ E,F,/G,/ | A,G,/F,/ E,D, C,B,, | A,,D,/C,/ D,F, B,,E, | C,F,/E,/ F,A, =D,G, | %146
 E,A,/G,/ A,C F,B, | G,E, G,B, ED | C2 z2 z2 | z/ D,/E,/F,/ _G,/A,/B,/C/ D/B,/A,/=G,/ | %150
 C/ z/ z z/ D/C/B,/ A,/F,/G,/A,/ | B,/B,,/C,/D,/ E,/F,/G,/A,/ B,/G,/F,/E,/ | A,2 A,,B,, A,,G,, | %153
 F,,A, G,F, E,D, | C,2 z/ B,,/C,/D,/ E,/D,/C,/B,,/ | A,,2 z/ C/B,/A,/ G,/F,/E,/=D,/ | %156
 G,2 z/ F,/G,/A,/ B,/A,/G,/F,/ | E,E,, G,,B,, E,G, | A,D, E,2 E,,2 | %159
 A,,A,,/B,,/ C,C,/D,/ E,F,/G,/ | A,2 z4 | %161
[M:4/4] F,,/F,/A,/F,/ =E,/G,/C,/E,/ F,,/F,/A,/F,/ G,/B,/_E,/G,/ | %162
 A,,/A,/C/A,/ G,/B,/C,/C/ F,,/F,/A,/F,/ B,,/D,/G,,/B,,/ | C,,2 z2 z/ F,/A,/F,/ D/C/D/D,/ | %164
 C,/G,/B,/G,/ A,/C/=E,/G,/ F,,/F,/A,/F,/ G,/B,/_E,/G,/ | %165
 A,,/A,/C/A,/ F,/A,/D,/F,/ B,,/G,/B,/G,/ A,/C/E,/A,/ | G,/B,/D/B,/ C2- C/B,/G,/E,/ A,/E,/C,/A,,/ | %167
 E,,/E,/G,/E,/ A,/C/F,/A,/ =D,/A,/C/A,/ F,/A,/D,/F,/ | %168
 =B,,/G,/=B,/G,/ C/E/A,/C/ F,/A,/C/A,/ F,/A,/=D,/F,/ | %169
 G,,/G,/=B,/G,/ C/E/A,/C/ F,,/F,/A,/F,/ =D,/F,/=B,,/D,/ | %170
 G,,/G,/=B,/G,/ C/E/G,/_B,/ A,/C/F,/A,/ G,G,, | %171
 C,/E,/G,/E,/ C,/E,/A,,/C,/ F,,/A,,/=D,,/F,,/ G,,G,, | %172
 C,,/C,/E,/C,/ =D,/F,/B,,/D,/ E,,/E,/G,/E,/ D,/F,/G,,/G,/ | C,,/C,/E,/C,/ F,/A,/=D,/F,/ G,,2 z2 | %174
 z/ C,/E,/C,/ A,/G,/A,/A,,/ G,,/=D,/F,/D,/ E,/G,/=B,,/D,/ | %175
 C,,/C,/E,/C,/ =D,/F,/B,,/D,/ E,,/E,/G,/E,/ C,/E,/A,,/C,/ | %176
 F,,/=D,/F,/D,/ E,/G,/B,,/E,/ D,/F,/A,/F,/ G,/B,/E,/G,/ | %177
 C,/F,/=D,/B,,/ E,/G,/C,/E,/ =A,,/C/E/C/ =A,/C/F,/A,/ | %178
 B,/B,,/D,/B,,/ E,/G,/C,/E,/ F,,/C,/E,/C,/ =A,,/C,/F,,/A,,/ | %179
 B,,/B,/D/B,/ E,/G,/C,/E,/ E,,/C,/E,/C,/ D,/F,/B,,/D,/ | %180
 G,,/=E,/G,/E,/ F,/A,/C,/F,/ E,/G,/B,/G,/ A,/C/F,/A,/ | %181
 =D,/G,/=E,/C,/ F,/A,/_D,/F,/ B,,/D,/F,/D,/ B,,/D,/G,,/B,,/ | %182
 =E,,/C,/=E,/C,/ F,/A,/D,/F,/ B,,/D,/F,/D,/ B,,/D,/G,,/B,,/ | %183
 C,,/C,/=E,/C,/ F,/A,/D,/F,/ B,,/B,/D/B,/ G,/B,/E,/G,/ | %184
 C,,/C,/=E,/C,/ F,/A,/C,/_E,/ D,/F,/B,,/D,/ C,C,, | %185
 F,,/A,/C/A,/ F,/A,/D,/F,/ B,,/D,/G,,/B,,/ C,C,, | %186
 F,,/F,/A,/F,/ G,/B,/E,/G,/ A,,/A,/C/A,/ G,/B,/C,/C/ | F,,/F,/A,/F,/ B,,/D,/G,,/B,,/ C,,2 z2 | %188
 z/ F,/A,/F,/ D/C/D/D,/ C,/G,/B,/G,/ A,/C/=E,/G,/ | F,,/A,,/C,/A,,/ D,D,, !fermata!C,,4 | z8 | %191
[M:2/2] A,,2 B,,2 C,2 A,,2 | E,2 F,2 G,2 E,2 | A,2 G,2 F,4 | C,4 D,2 B,,2 | E,2 F,2 D,2 E,2 | %196
 A,,2 A,2 G,2 F,2 | E,2 E2 =D2 C2 | =D2 B,2 G,2 A,B, | C2 E2 C2 A,2 | G,2 E,2 A,2 G,2 | %201
 F,2 G,2 A,2 B,2 | E2 E,2 F,2 G,2 | A,4 E,2 A,2 | B,A,G,F, E,2 B,2 | PC2 B,C DCB,A, | %206
 EDCB, A,2 D2- | D2 C2 B,2 E2 | A,G,A,B, CB,CD | E2 E,F, G,2 E,2 | A,2 B,C D2 C2 | B,2 A,2 G,2 C2 | %212
 F,2 G,A, B,2 A,2 | G,2 E,2 A,2 A,,2 | D,2 C,2 D,2 B,,2 | E,2 D,2 C,2 F,2 | B,,4 E,4 | %217
 A,,2 A,2 G,2 F,2 | G,2 F,G, A,G,F,E, | A,4 A,,2 B,,2 | C,2 D,E, F,E,D,C, | B,,2 C,2 D,2 E,2 | %222
 A,,2 A,2 G,2 F,2 | E,2 E2 =D2 C2 | =D2 CD EDCB, | E4 E,2 F,2 | G,2 A,B, CB,A,G, | %227
 F,2 G,2 A,2 B,2 | E,2 F,2 G,2 E,2 | A,2 G,2 F,2 B,2 | E,2 F,G, A,2 G,2 | F,2 E,2 =D,2 G,2 | %232
 C,2 =D,E, F,2 E,2 | =D,2 B,,2 E,2 E,,2 | A,,2 G,,2 A,,2 F,,2 | B,,2 A,,2 G,,2 C,2 | F,,4 B,,4 | %237
 E,,2 A,,2 B,,2 B,,2 | E,,2 E,F, E,D,C,B,, | A,,2 B,,2 C,2 A,,2 | E,2 F,2 G,2 E,2 | A,2 G,2 F,4 | %242
 C,4 D,2 B,,2 | E,2 F,2 D,2 E,2 | A,,2 A,2 G,2 F,2 | E,2 E2 =D2 C2 | =D2 B,2 G,2 A,B, | %247
 C2 E2 C2 A,2 | G,2 E,2 A,2 G,2 | F,2 G,2 A,2 B,2 | E2 E,2 F,2 G,2 | A,4 E,2 A,2 | %252
 B,A,G,F, E,2 B,2 | PC2 B,C DCB,A, | EDCB, A,2 D2- | D2 C2 B,2 E2 | A,G,A,B, CB,CD | %257
 E2 E,F, G,2 E,2 | A,2 B,C D2 C2 | B,2 A,2 G,2 C2 | F,2 G,A, B,2 A,2 | G,2 E,2 A,2 A,,2 | %262
 D,2 C,2 D,2 B,,2 | E,2 D,2 C,2 F,2 | B,,4 E,4 | A,,2 A,2 G,2 F,2 | G,2 F,G, A,G,F,E, | %267
 A,4 A,,2 B,,2 | C,2 D,E, F,E,D,C, | B,,2 C,2 D,2 E,2 | A,,2 A,2 G,2 F,2 | E,2 E2 =D2 C2 | %272
 =D2 CD EDCB, | E4 E,2 F,2 | G,2 A,B, CB,A,G, | F,2 G,2 A,2 B,2 | E,2 F,2 G,2 E,2 | %277
 A,2 G,2 F,2 B,2 | E,2 F,G, A,2 G,2 | F,2 E,2 =D,2 G,2 | C,2 =D,E, F,2 E,2 | =D,2 B,,2 E,2 E,,2 | %282
 A,,2 G,,2 A,,2 F,,2 | B,,2 A,,2 G,,2 C,2 | F,,4 B,,4 | E,,2 A,,2 B,,2 B,,2 | E,,8 | z8 | z8 | z8 | %290
 z8 | C2 B,2 A,2 B,2 | C2 B,C DCB,A, | B,2 F,2 _G,2 A,2 | D,2 D2 C2 B,2 | =A,B,CA, F,4- | %296
 F,G,=A,G, B,A,G,F, | B,2 A,2 _G,4 | F,4- F,E,D,C, | B,,2 B,2- B,A,_G,F, | E,2 E2- ECD=A, | %301
 B,F,_G,E, F,2 F,,2 | B,,8 | z8 | z8 | E,4- E,D,C,B,, | D,6 D2 | C2 B,A, A,G,F,E, | %308
 A,2 B,C B,A,G,F, | F8- | F2 ED EDCB, | E8- | E2 DC DCB,A, | DCB,A, G,F,E,D, | C,2 D,E, F,2 G,A, | %315
 B,A,G,F, E,D,C,B,, | A,,2 B,,C, D,2 B,,2 | E,2 E,,2 E,2 F,2 | G,2 F,2 G,2 E,2 | %319
 D,2 C,D, E,D,C,B,, | D,C,B,,A,, A,,G,,F,,E,, | A,,2 A,G, F,E,D,C, | =B,,C,=D,B,, G,,4- | %323
 G,,=A,,=B,,A,, C,B,,A,,G,, | C,2 B,,2 A,,4 | G,,4- G,,F,,E,,=D,, | C,,2 C,2- C,B,,A,,G,, | %327
 F,,2 F,2- F,=D,E,=B,, | C,G,,A,,F,, G,,2 G,,2 | C,,2 D,,E,, F,,G,,A,,B,, | C,2 B,,2 C,2 A,,2 | %331
 G,,2 F,,2 G,,2 E,,2 | A,,2 E,2 A,2 B,2 | C2 B,C z4 | z8 | z8 | E,2 F,2 G,2 E,2 | %337
 =D,2 C,2 D,2 B,,2 | E,,2 B,,2 E,2 F,2 | PG,2 F,G, A,G,F,E, | B,2 C2 A,2 B,2 | z8 | %342
 B,CDC B,A,G,F, | E,F,G,F, E,D,C,B,, | A,,B,,C,B,, A,,G,,F,,E,, | D,,4 D,4- | D,2 E,F, E,D,C,B,, | %347
 C,8- | C,2 D,E, D,C,B,,A,, | E,4 E,,2 G,,2 | A,,2 A,,/B,,/C, B,,2 B,,/C,/D, | C,4 z2 D,2 | %352
 E,2 D,2 E,2 E,,2 | A,,2 B,,C, B,,A,,G,,F,, | z8 | z8 | z8 | z8 | C2 B,2 A,2 B,2 | C2 B,C DCB,A, | %360
 B,2 F,2 _G,2 A,2 | D,2 D2 C2 B,2 | =A,B,CA, F,4- | F,G,=A,G, B,A,G,F, | B,2 A,2 _G,4 | %365
 F,4- F,E,D,C, | B,,2 B,2- B,A,_G,F, | E,2 E2- ECD=A, | B,F,_G,E, F,2 F,,2 | B,,8 | z8 | z8 | %372
 E,4- E,D,C,B,, | D,6 D2 | C2 B,A, A,G,F,E, | A,2 B,C B,A,G,F, | F8- | F2 ED EDCB, | E8- | %379
 E2 DC DCB,A, | DCB,A, G,F,E,D, | C,2 D,E, F,2 G,A, | B,A,G,F, E,D,C,B,, | A,,2 B,,C, D,2 B,,2 | %384
 E,2 E,,2 E,2 F,2 | G,2 F,2 G,2 E,2 | D,2 C,D, E,D,C,B,, | D,C,B,,A,, A,,G,,F,,E,, | %388
 A,,2 A,G, F,E,D,C, | =B,,C,=D,B,, G,,4- | G,,=A,,=B,,A,, C,B,,A,,G,, | C,2 B,,2 A,,4 | %392
 G,,4- G,,F,,E,,=D,, | C,,2 C,2- C,B,,A,,G,, | F,,2 F,2- F,=D,E,=B,, | C,G,,A,,F,, G,,2 G,,2 | %396
 C,,2 D,,E,, F,,G,,A,,B,, | C,2 B,,2 C,2 A,,2 | G,,2 F,,2 G,,2 E,,2 | A,,2 E,2 A,2 B,2 | %400
 C2 B,C z4 | z8 | z8 | E,2 F,2 G,2 E,2 | =D,2 C,2 D,2 B,,2 | E,,2 B,,2 E,2 F,2 | %406
 PG,2 F,G, A,G,F,E, | B,2 C2 A,2 B,2 | z8 | B,CDC B,A,G,F, | E,F,G,F, E,D,C,B,, | %411
 A,,B,,C,B,, A,,G,,F,,E,, | D,,4 D,4- | D,2 E,F, E,D,C,B,, | C,8- | C,2 D,E, D,C,B,,A,, | %416
 E,4 E,,2 G,,2 | A,,2 A,,/B,,/C, B,,2 B,,/C,/D, | C,4 z2 D,2 | E,2 D,2 E,2 E,,2 | A,,8 |] %421
V:3
 x6 | x6 | x6 | x6 | x6 | x6 | x6 | x6 | x6 | x6 | x6 | x6 | x6 | x6 | x6 | x6 | x6 | x6 | x6 | %19
 x6 | x6 | x6 | x6 | x6 | x6 | x6 | x6 | x6 | x6 | x6 | x6 | x6 | x6 | x6 | x6 | x6 | x6 | x6 | %38
 x6 |[M:3/4] x6 | x6 | x6 | x6 | x6 | x6 | x6 | x6 | x6 | x6 | x6 | x6 | x6 | x6 | x6 | x6 | x6 | %56
 x6 | x6 | x6 | x6 | x6 | x6 | x6 | x6 | x6 | x6 | x6 | x6 | x6 | x6 | x6 | x6 | x6 | x6 | x6 | %75
 x6 | x6 | x6 | x6 | x6 | x6 | x6 | x6 | x6 | x6 | x6 | x6 | x6 | x6 | x6 | x6 | x6 | x6 | x6 | %94
 x6 | x6 | x6 | x6 | x6 | x6 | x6 | x6 | x6 | x6 | x6 | x6 | x6 | x6 | x6 | x6 | x6 | x6 | E,,6- | %113
 E,,6 | E,,6- | E,,6 | E,,6- | E,,6 | E,,6- | E,,6 | E,,6- | E,,6 | E,,6- | E,,6 | E,,6- | E,,6 | %126
 E,,6- | E,,6 | E,,6- | E,,/ z/ z z2 z2 | x6 | x6 | x6 | x6 | x6 | x6 | x6 | x6 | x6 | x6 | x6 | %141
 x6 | x6 | x6 | x6 | x6 | x6 | x6 | x6 | x6 | x6 | x6 | x6 | x6 | x6 | x6 | x6 | x6 | x6 | x6 | %160
 x6 |[M:4/4] x8 | x8 | x8 | x8 | x8 | x8 | x8 | x8 | x8 | x8 | x8 | x8 | x8 | x8 | x8 | x8 | x8 | %178
 x8 | x8 | x8 | x8 | x8 | x8 | x8 | x8 | x8 | x8 | x8 | x8 | x8 |[M:2/2] x8 | x8 | x8 | x8 | x8 | %196
 x8 | x8 | x8 | x8 | x8 | x8 | x8 | x8 | x8 | x8 | x8 | x8 | x8 | x8 | x8 | x8 | x8 | x8 | x8 | %215
 x8 | x8 | x8 | x8 | x8 | x8 | x8 | x8 | x8 | x8 | x8 | x8 | x8 | x8 | x8 | x8 | x8 | x8 | x8 | %234
 x8 | x8 | x8 | x8 | x8 | x8 | x8 | x8 | x8 | x8 | x8 | x8 | x8 | x8 | x8 | x8 | x8 | x8 | x8 | %253
 x8 | x8 | x8 | x8 | x8 | x8 | x8 | x8 | x8 | x8 | x8 | x8 | x8 | x8 | x8 | x8 | x8 | x8 | x8 | %272
 x8 | x8 | x8 | x8 | x8 | x8 | x8 | x8 | x8 | x8 | x8 | x8 | x8 | x8 | x8 | x8 | x8 | x8 | x8 | %291
 x8 | x8 | x8 | x8 | x8 | x8 | x8 | x8 | x8 | x8 | x8 | x8 | x8 | x8 | x8 | x8 | x8 | x8 | x8 | %310
 x8 | x8 | x8 | x8 | x8 | x8 | x8 | x8 | x8 | x8 | x8 | x8 | x8 | x8 | x8 | x8 | x8 | x8 | x8 | %329
 x8 | x8 | x8 | x8 | x8 | x8 | x8 | x8 | x8 | x8 | x8 | x8 | x8 | x8 | x8 | x8 | x8 | x8 | x8 | %348
 x8 | x8 | x8 | x8 | x8 | x8 | x8 | x8 | x8 | x8 | x8 | x8 | x8 | x8 | x8 | x8 | x8 | x8 | x8 | %367
 x8 | x8 | x8 | x8 | x8 | x8 | x8 | x8 | x8 | x8 | x8 | x8 | x8 | x8 | x8 | x8 | x8 | x8 | x8 | %386
 x8 | x8 | x8 | x8 | x8 | x8 | x8 | x8 | x8 | x8 | x8 | x8 | x8 | x8 | x8 | x8 | x8 | x8 | x8 | %405
 x8 | x8 | x8 | x8 | x8 | x8 | x8 | x8 | x8 | x8 | x8 | x8 | x8 | x8 | x8 | x8 |] %421
V:4
 z6 | A2 E F/G/ TG3/2F/4G/4 | A/G/A/B/c/B/{Bc} dc/B/e | ce/=d/f/e/ d/B/ e2- | e =d2 e/d/g/f/e/d/ | %5
 c3- c/f/B/A/G/F/ | G/A/B/A/c/B/ A/B/4G/4 TF>E | E/G/A/F/G- G/B/G/E/F/=D/ | %8
 E2 B, C/=D/ TD3/2C/4D/4 | E/=D/E/F/G/F/{FG} AG/F/B | GBe- e/=d/ f2- | %11
 f/e/_g/f/e/d/ c/d/ Td3/2c/4d/4 | e/d/f/e/d/c/ df/=e/g/f/ | =e/c/ f2- f e2 | f/e/d/c/B/A/ d3- | %15
 d/g/c/B/A/G/ A/B/c/B/d/c/ | B/c/4A/4 TG>F F/c/f/e/d/c/ | B/=A/e/d/e- e/f/d/B/c/A/ | B3 z3 | %19
 z/ e/B/G/A/F/ G/B/e/d/c/B/ | A/G/d/c/d- d/e/c/A/B/G/ | A3 z3 | z/ d/A/F/_G/E/ F/A/F/D/E/C/ | %23
 D/F/D/B,/C/A,/ B,/C/ TC3/2B,/4C/4 | D/E/ TE3/2D/4E/4 F/G/ TG/F/4G/4 TA/G/4A/4 | %25
 TB/A/4B/4 c>d B2 z | e3- e/e/d/B/c/A/ | d/_G/F/D/E/C/ D/F/A/c/d/f/ | B3- B/C/E/G/A/c/ | %29
 F3- F/E/G/F/G- | G/F/A/G/A- A/G/B/A/B- | BAG A/F/ TB>A | A/c/d/B/c- c/e/c/A/B/G/ | A6- | %34
 A/F/A/G/F/E/ e3- | e/c/d/B/c- c/e/c/A/B/G/ | A/B/TB/A/4B/4c- c/A/ TG>A | %37
 A/D/C/A,/B,/G,/ !fermata!A,3 | z6 |[M:3/4] z2 [CE]2 [DEG]2 | [EA]2 [EA][FA] [EA][EG] | %41
 [EA]2 [DA]2 [DE]2 | [CE]2 [CF]2 [=DG]2 | [EG]2 [EA]2 [FAB]2 | [EGB] E/F/ GG/A/ Bc/=d/ | %45
 e=d/c/ BA GF | EA/G/ Ac FB | Gc/B/ ce Ad | Be/d/ eg cf | d/c/d/e/ fA Gd | c/B/c/d/ eA Gd | %51
 c/B/c/d/ eA E_G | F/_G/F/E/ D/C/B,/A,/ G,=G | A/B/A/G/ F/E/=D/C/ B,B | %54
 c/d/c/B/ A/G/F/E/ F/A/G/F/ | [EGB]2 z2 z2 | ag/f/ e/d/c/B/ A/c/B/A/ | dA FD dB | %58
 G/C/D/E/ F/G/A/B/ c/B/A/G/ | F2- F/c/B/A/ TG3/2F/4G/4 | AA/B/ cc/d/ ef/g/ | ag/f/ ed cB | %62
 Ad/c/ df Be | cf/e/ fa =dg | ea/g/ ac' fb | g/a/g/f/ e/d/c/B/ A/G/F/E/ | e>f TB3 A | %67
 AA,/B,/ CC/D/ EF/G/ | A/c/e/f/ e/f/e/f/ G/B/d/e/ | A/c/e/f/ e/f/e/f/ G/B/d/e/ | %70
 A/c/e/f/ e/f/e/f/ B/=d/f/g/ | c/e/g/a/ g/a/g/a/ =d/f/a/b/ | gB GE B=d | eB GE B=d | eg ec Af | %75
 BF GB e=A | B/d/f/_g/ B/d/f/g/ c/d/e/f/ | F2 z/ b/a/_g/ f/b/e/=a/ | bB/c/ dd/e/ fg/=a/ | %79
 ba/_g/ fe dc | d z z b/a/ g/f/e/d/ | c2 z a/g/ f/e/d/c/ | B2 z g/f/ =e/=d/c/B/ | AF Tc4- | c6- | %85
 cf/_g/ f/g/f/g/ =A/c/e/f/ | B/d/f/_g/ f/g/f/g/ =A/c/e/f/ | =d/f/b/c'/ b/c'/b/c'/ d/f/a/b/ | %88
 e/g/b/c'/ b/c'/b/c'/ =d/f/a/b/ | ge BG E2 | z C/D/ EE/F/ GA/B/ | ce Ae BG | E6- | E2 F2 G2- | %94
 G2 A2 B2- | B2 c2 d2 | Td6- | d2 cB cA | Td6- | d2 cB cA | TB6- | B2 AG AF | TB6- | B2 AG AF | %104
 T_G6- | G2 FE FD | T_G6- | G2 FE FD | [EGBe]2 z/ e/d/c/ B/A/G/F/ | [EAce]2 z e/d/ c/B/A/G/ | %110
 [FB=df]2 z f/e/ d/c/B/A/ | c/B/A/G/ A/B/c/=d/ e/f/g/f/ | gE/F/ GG/A/ BB/c/ | d3 c/d/ e/d/c/B/ | %114
 cA/B/ cc/d/ ef/g/ | a3 f/g/ a/g/f/e/ | =dB/c/ dd/e/ ff/g/ | a3 g/a/ b/a/g/f/ | %118
 g/b/d'/c'/ b/a/g/f/ e/d/c/B/ | cF/G/ AA/B/ cd/e/ | f/a/c'/b/ a/g/f/e/ d/c/B/A/ | %121
 BE/F/ GG/A/ Bc/d/ | e/g/b/a/ g/f/e/d/ c/B/A/G/ | AD/E/ FF/G/ AB/c/ | d/f/a/g/ f/e/d/c/ B/A/G/F/ | %125
 GC/D/ EE/F/ GA/B/ | cc/B/ ce Ac | FA/G/ A_c FA | =DF/E/ FA DF | %129
 B,/[I:staff +1] E,,/G,,/B,,/ E,/G,/B,/D/[I:staff -1] E/G/B/d/ | e/g/b/d'/ z2 z2 | %131
 z2 [CE]2 [DEG]2 | [EA]2 [EA][FA] [EA][EG] | [EA]2 [DA]2 [DE]2 | [CE]2 [CF]2 [=DG]2 | %135
 [EG]2 [EA]2 [EAB]2 | [EGB] E/F/ GG/A/ Bc/=d/ | e=d/c/ BA GF | EA/G/ Ac FB | Gc/B/ ce Ad | %140
 Be/d/ eg cf | d/c/d/e/ fA Gd | c/B/c/d/ eA Gd | c/B/c/d/ eA E_G | F/_G/F/E/ D/C/B,/A,/ G,=G | %145
 A/B/A/G/ F/E/=D/C/ B,B | c/d/c/B/ A/G/F/E/ F/A/G/F/ | [EGB]2 z2 z2 | ag/f/ e/d/c/B/ A/c/B/A/ | %149
 dA FD dB | G/C/D/E/ F/G/A/B/ c/B/A/G/ | F2- F/c/B/A/ TG3/2F/4G/4 | AA/B/ cc/d/ ef/g/ | %153
 ag/f/ ed cB | Ad/c/ df Be | cf/e/ fa =dg | ea/g/ ac' fb | g/a/g/f/ e/d/c/B/ A/G/F/E/ | e>f TB3 A | %159
 AA,/B,/ CC/D/ EF/G/ | A2 z4 |[M:4/4] z8 | z c BA/G/ AG/F/ dd | dc=d=e f2- f/e/f/g/ | %164
 T=e2 fg a>a b>c' | c'2 z2 z2 e2- | ea/g/ af d>e c>B | Bc/d/ c/B/A/G/ FG A/G/A/B/ | %168
 G/F/E z c- ce/=d/ d2- | de/f/ e/=d/e/c/ a2- a/d/e/f/ | =B=A/G/ z g- g/e/=d/c/ f2- | %171
 f/=B/c/=d/ e/d/f/e/ d/c/B/c/ B>c | c2 z2 z G FE/=D/ | E=D/C/ AA AG=A=B | c2- c/=B/c/=d/ TB2 cd | %175
 e>f f>g g2 z2 | z2 B2- Be/=d/ ec | A>B G>F F2 z2 | z2 e2- ef/_g/ f/e/d/c/ | dB Ge/c/ =AF z2 | %180
 z2 c2- cf/=e/ fd | B>c A>G G2 z2 | z2 z F- FA/G/ G2- | GA/B/ A/G/A/F/ d2- d/G/A/B/ | %184
 =E=D/C/ z c- c/A/G/F/ B2- | B/=E/F/G/ A/G/B/A/ G/F/E/F/ E>F | F2 z2 z c BA/G/ | AG/F/ dd dc=d=e | %188
 f2- f/=e/f/g/ Te2 fg | a>b b>c' !fermata!c'4 | z8 |[M:2/2] C2 D2 [A,E]2 [CE]2 | %192
 [G,E]2 [A,E]2 [B,E]2 [G,E]2 | [A,E]2 [B,E]2 [A,D]4 | [A,E]2 E2- [EF]2 [FA]2 | %195
 [B,G]2 [A,A]2 [A,F]2 [G,E]2 | [A,E]2 [CA]2 [EA]2 [=DA]2 | e4 B2 e2 | fe=dc B4 | Tg2 fg agfe | %200
 bagf e2 a2- | a2 g2 fgaf | gfef gabd | cdBc dcBA | e8- | e2 de fedc | B2 E2 e2 dc | BABc dcde | %208
 cBcd edef | BAGF EGAB | cBAG FcBA | GFGA BABc | AGFE DAGF | EDEF _GFGA | FEDC B,FED | CB,CD EDEF | %216
 DCB,C DFED | CDB,C DCB,A, | E8- | E2 DE FEDC | _G6 FE | FG A4 G2 | A4 z4 | e4 B2 e2 | fe=dc B4 | %225
 Tg2 fg agfe | bagf e2 a2- | a2 g2 fgab | agfg e4- | e4 =d4- | d2 cB c4- | c4 B4- | B2 AG A4- | %233
 A4 G4- | G2 FE F4- | F4 E4- | E2 =DC DEFD | E3 F TD3 E | E8 | C2 D2 [A,E]2 [CE]2 | %240
 [G,E]2 [A,E]2 [B,E]2 [G,E]2 | [A,E]2 [B,E]2 [A,D]4 | [A,E]2 E2- [EF]2 [FA]2 | %243
 [B,G]2 [A,A]2 [A,F]2 [G,E]2 | [A,E]2 [CA]2 [EA]2 [=DA]2 | e4 B2 e2 | fe=dc B4 | Tg2 fg agfe | %248
 bagf e2 a2- | a2 g2 fgaf | gfef gabd | cdBc dcBA | e8- | e2 de fedc | B2 E2 e2 dc | BABc dcde | %256
 cBcd edef | BAGF EGAB | cBAG FcBA | GFGA BABc | AGFE DAGF | EDEF _GFGA | FEDC B,FED | CB,CD EDEF | %264
 DCB,C DFED | CDB,C DCB,A, | E8- | E2 DE FEDC | _G6 FE | FG A4 G2 | A4 z4 | e4 B2 e2 | fe=dc B4 | %273
 Tg2 fg agfe | bagf e2 a2- | a2 g2 fgab | agfg e4- | e4 =d4- | d2 cB c4- | c4 B4- | B2 AG A4- | %281
 A4 G4- | G2 FE F4- | F4 E4- | E2 =DC DEFD | E3 F TD3 E | E8 | B2 cd cBAG | e4 E2 G2 | %289
 A2 A/B/c B2 B/c/d | c2 de dcBA | a8- | a2 d/e/f e2 e/f/_g | fedc Bdce | d2 z2 z4 | %295
 e2 e/d/c d2 d/c/B | c6 =A2 | B2 F2 B2 e2- | edcB =AG F2 | f3 e dc B2 | b3 =a babc' | f3 b T=a3 b | %302
 bdef edcB | b4 B2 =d2 | e2 e/f/g f2 f/g/a | g2 f2 e4- | eGAB AGFE | e8 | e8- | e2 f_g fedc | d8- | %311
 d2 cd edcB | c2 Td2 e4- | e2 dc B4- | B2 AG A4- | AcBA Gfed | cbag fedc | B2 z2 z4 | B2 cd cBAG | %319
 e4 E2 G2 | A2 A/B/c B2 B/c/d | c2 de dcBA | f2 f/e/=d e2 e/d/c | =d6 =B2 | c2 G2 c2 f2- | %325
 fe=dc =B=A G2 | g3 f e=dc=B | c3 =B cBc=d | G3 c T=B3 c | c8 | A4 E2 A2 | BAGF E4 | Pc2 Bc dcBA | %333
 edcB A2 d2- | d2 c2 BcdB | cBAB c=def | gabg e4 | B2 e2 fe=dc | B8- | B4 c4 | =d2 e4 d2 | e4 z4 | %342
 z2 f2 b2 a2 | g8- | g2 e2 a2 g2 | f4- fedc | dcBA GFED | EDEF EDCB, | A,2 A4 E2- | E2 A2 BAGF | %350
 E2 A4 G2 | A2 ed cBAG | A3 B TG3 A | A8 | B2 cd cBAG | e4 E2 G2 | A2 A/B/c B2 B/c/d | c2 de dcBA | %358
 a8- | a2 d/e/f e2 e/f/_g | fedc Bdce | d2 z2 z4 | e2 e/d/c d2 d/c/B | c6 =A2 | B2 F2 B2 e2- | %365
 edcB =AG F2 | f3 e dc B2 | b3 =a babc' | f3 b T=a3 b | bdef edcB | b4 B2 =d2 | e2 e/f/g f2 f/g/a | %372
 g2 f2 e4- | eGAB AGFE | e8 | e8- | e2 f_g fedc | d8- | d2 cd edcB | c2 Td2 e4- | e2 dc B4- | %381
 B2 AG A4- | AcBA Gfed | cbag fedc | B2 z2 z4 | B2 cd cBAG | e4 E2 G2 | A2 A/B/c B2 B/c/d | %388
 c2 de dcBA | f2 f/e/=d e2 e/d/c | =d6 =B2 | c2 G2 c2 f2- | fe=dc =B=A G2 | g3 f e=dc=B | %394
 c3 =B cBc=d | G3 c T=B3 c | c8 | A4 E2 A2 | BAGF E4 | Pc2 Bc dcBA | edcB A2 d2- | d2 c2 BcdB | %402
 cBAB c=def | gabg e4 | B2 e2 fe=dc | B8- | B4 c4 | =d2 e4 d2 | e4 z4 | z2 f2 b2 a2 | g8- | %411
 g2 e2 a2 g2 | f4- fedc | dcBA GFED | EDEF EDCB, | A,2 A4 E2- | E2 A2 BAGF | E2 A4 G2 | %418
 A2 ed cBAG | A3 B TG3 A | A8 |] %421
V:5
 A,,6- | A,,6 | A,2 E, F,/G,/ TG,3/2F,/4G,/4 | A,3- A,/G,/C/B,/A,/G,/ | F,B,B,, E,/B,/E/=D/C/B,/ | %5
 A,F,A, B,C=D | ECA,- A,B,B,, | E,2 z E,,2 z | E,/=D,/E,/F,/G,/F,/ A,G,/F,/B, | G,2 z F,B,B,, | %10
 E,2 B,, C,/=D,/ TD,3/2C,/4D,/4 | E,3- E,/D,/_G,/F,/E,/D,/ | C,F,F,, B,,3- | %13
 B,,/A,,/D,/C,/B,,/A,,/ G,,C,C,, | F,,/C,/F,/E,/D,/C,/ B,,G,,B,, | C,=D,=E, F,_D,B,,- | %16
 B,,C,C,, F,,2 F, | G,/=A,/ TA,>G, B,3- | B,2 B,, C,/=D,/ TD,3/2C,/4D,/4 | E,3- E,2 E, | %20
 F,/G,/ TG,>F, A,3- | A,2 A,, B,,/C,/ TC,3/2B,,/4C,/4 | D,6- | D,3- D,/E,/D,/B,,/C,/A,,/ | %24
 G,,/B,,/A,,/F,,/_G,,/E,,/ B,,3- | B,,/E/D/B,/C/A,/ EE,D, | %26
 C,/E,/D,/B,,/C,/A,,/ D,/E,/ TE,3/2D,/4E,/4 | F,3- F,/A,/D/C/B,/A,/ | %28
 G,/F,/A,/G,/F,/E,/ A,/E,/A,/G,/F,/E,/ | =D, TD,3/2C,/4D,/4 E, TE,3/2D,/4=E,/4 | %30
 F, TF,3/2=E,/4F,/4 G, TG,3/2F,/4G,/4 | A,/F,/E,/C,/D,/B,,/ C,/D,/E,E,, | A,,2 z A,2 z | %33
 z/ _G,/_F,/E,/=D,/E,/ D,/C,/E,/D,/C,/B,,/ | D,6 | C,2 z E,2 z | A,F,C, D,E,E,, | !fermata!A,,6 | %38
 z6 |[M:3/4] A,,2 A,2 B,2 | C2 C,D, E,C, | F,2 F,,2 G,,2 | A,,2 A,2 B,2 | C2 C,2 =D,2 | E,4 B,,2 | %45
 C,B,,/A,,/ G,,F,, E,,2 | A,,2 F,,2 B,,2 | E,,2 E,2 F,2 | G,2 G,,2 A,,2 | B,,2 D,2 E,2 | %50
 A,A,,/B,,/ C,C,/D,/ E,F,/G,/ | A,G,/F,/ E,D, C,B,, | A,,D,/C,/ D,F, B,,E, | C,F,/E,/ F,A, =D,G, | %54
 E,A,/G,/ A,C F,B, | G,E, G,B, ED | C2 z2 z2 | z/ D,/E,/F,/ _G,/A,/B,/C/ D/B,/A,/=G,/ | %58
 C/ z/ z z/ D/C/B,/ A,/F,/G,/A,/ | B,/B,,/C,/D,/ E,/F,/G,/A,/ B,/G,/F,/E,/ | A,2 A,,B,, A,,G,, | %61
 F,,A, G,F, E,D, | C,2 z/ B,,/C,/D,/ E,/D,/C,/B,,/ | A,,2 z/ C/B,/A,/ G,/F,/E,/=D,/ | %64
 G,2 z/ F,/G,/A,/ B,/A,/G,/F,/ | E,E,, G,,B,, E,G, | A,D, E,2 E,,2 | %67
 A,,A,,/B,,/ C,C,/D,/ E,F,/G,/ | A,2 z2 z2 | A,,2 z2 z2 | A,,2 z2 A,2 | G,2 z2 F,2 | %72
 E,/G,/B,/C/ B,/C/B,/C/ =D,/F,/A,/B,/ | E,/G,/B,/C/ B,/C/B,/C/ =D,/F,/A,/B,/ | %74
 E,/G,/B,/C/ B,/C/B,/C/ F,/A,/C/=D/ | G,/B,/=D/E/ D/E/D/E/ =A,/C/E/F/ | %76
 D z z/ D/C/B,/ =A,/G,/F,/E,/ | D,C, D,E, F,F,, | B,,2 z/ D,/C,/B,,/ =A,,/G,,/F,,/E,,/ | %79
 D,,C,, D,,E,, F,,F, | B,,B,/A,/ B,D E,G, | A,,A,/G,/ A,C D,F, | G,,G,/F,/ G,B, C,=E, | %83
 F,/A,/C/D/ C/D/C/D/ =E,/G,/B,/C/ | F,/A,/C/D/ C/D/C/D/ =E,/G,/B,/C/ | A,F, D,B,, F,=A, | %86
 B,F, D,B,, F,=A, | TB,6- | B,6 | E,3 D,/C,/ D,C,/B,,/ | C,2 C2 B,2 | %91
 A,A,,/B,,/ C,C,/D,/ E,F,/G,/ | A,G,/F,/ E,D, C,B,, | A,,D,/C,/ D,F, B,,E, | C,F,/E,/ F,A, D,G, | %95
 E,A,/G,/ A,C F,B, | G,/B,/E/F/ E/F/E/F/ G,/B,/E/F/ | A,/C/E/F/ E/F/E/F/ A,/C/E/F/ | %98
 G,/B,/E/F/ E/F/E/F/ G,/B,/E/F/ | A,/C/E/F/ E/F/E/F/ A,/C/E/F/ | =E,/G,/C/D/ C/D/C/D/ E,/G,/C/D/ | %101
 F,/A,/C/D/ C/D/C/D/ F,/A,/C/D/ | =E,/G,/C/D/ C/D/C/D/ E,/G,/C/D/ | %103
 F,/A,/C/D/ C/D/C/D/ F,/A,/C/D/ | C,/E,/A,/B,/ A,/B,/A,/B,/ C,/E,/A,/B,/ | %105
 D,/F,/A,/B,/ A,/B,/A,/B,/ D,/F,/A,/B,/ | C,/E,/A,/B,/ A,/B,/A,/B,/ C,/E,/A,/B,/ | %107
 D,/F,/A,/B,/ A,/B,/A,/B,/ D,/F,/A,/B,/ | D,/E,/G,/A,/ G,/A,/G,/A,/ D,/E,/G,/A,/ | %109
 C,/E,/A,/B,/ A,/B,/A,/B,/ C,/E,/A,/B,/ | =D,/F,/A,/B,/ A,/B,/A,/B,/ D,/F,/A,/B,/ | E,6 | E,6- | %113
 E,6 | E,6- | E,6 | E,6- | E,6 | E,6- | E,6 | E,6- | E,6 | E,6- | E,6 | E,6- | E,6 | E,6- | E,6 | %128
 E,6- | E,2 z2 z2 | z6 | A,,2 A,2 B,2 | C2 C,D, E,C, | F,2 F,,2 G,,2 | A,,2 A,2 B,2 | C2 C,2 =D,2 | %136
 E,4 B,,2 | C,B,,/A,,/ G,,F,, E,,2 | A,,2 F,,2 B,,2 | E,,2 E,2 F,2 | G,2 G,,2 A,,2 | B,,2 D,2 E,2 | %142
 A,A,,/B,,/ C,C,/D,/ E,F,/G,/ | A,G,/F,/ E,D, C,B,, | A,,D,/C,/ D,F, B,,E, | C,F,/E,/ F,A, =D,G, | %146
 E,A,/G,/ A,C F,B, | G,E, G,B, ED | C2 z2 z2 | z/ D,/E,/F,/ _G,/A,/B,/C/ D/B,/A,/=G,/ | %150
 C/ z/ z z/ D/C/B,/ A,/F,/G,/A,/ | B,/B,,/C,/D,/ E,/F,/G,/A,/ B,/G,/F,/E,/ | A,2 A,,B,, A,,G,, | %153
 F,,A, G,F, E,D, | C,2 z/ B,,/C,/D,/ E,/D,/C,/B,,/ | A,,2 z/ C/B,/A,/ G,/F,/E,/=D,/ | %156
 G,2 z/ F,/G,/A,/ B,/A,/G,/F,/ | E,E,, G,,B,, E,G, | A,D, E,2 E,,2 | %159
 A,,A,,/B,,/ C,C,/D,/ E,F,/G,/ | A,2 z4 | %161
[M:4/4] F,,/F,/A,/F,/ =E,/G,/C,/E,/ F,,/F,/A,/F,/ G,/B,/_E,/G,/ | %162
 A,,/A,/C/A,/ G,/B,/C,/C/ F,,/F,/A,/F,/ B,,/D,/G,,/B,,/ | C,,2 z2 z/ F,/A,/F,/ D/C/D/D,/ | %164
 C,/G,/B,/G,/ A,/C/=E,/G,/ F,,/F,/A,/F,/ G,/B,/_E,/G,/ | %165
 A,,/A,/C/A,/ F,/A,/D,/F,/ B,,/G,/B,/G,/ A,/C/E,/A,/ | G,/B,/D/B,/ C2- C/B,/G,/E,/ A,/E,/C,/A,,/ | %167
 E,,/E,/G,/E,/ A,/C/F,/A,/ =D,/A,/C/A,/ F,/A,/D,/F,/ | %168
 =B,,/G,/=B,/G,/ C/E/A,/C/ F,/A,/C/A,/ F,/A,/=D,/F,/ | %169
 G,,/G,/=B,/G,/ C/E/A,/C/ F,,/F,/A,/F,/ =D,/F,/=B,,/D,/ | %170
 G,,/G,/=B,/G,/ C/E/G,/_B,/ A,/C/F,/A,/ G,G,, | %171
 C,/E,/G,/E,/ C,/E,/A,,/C,/ F,,/A,,/=D,,/F,,/ G,,G,, | %172
 C,,/C,/E,/C,/ =D,/F,/B,,/D,/ E,,/E,/G,/E,/ D,/F,/G,,/G,/ | C,,/C,/E,/C,/ F,/A,/=D,/F,/ G,,2 z2 | %174
 z/ C,/E,/C,/ A,/G,/A,/A,,/ G,,/=D,/F,/D,/ E,/G,/=B,,/D,/ | %175
 C,,/C,/E,/C,/ =D,/F,/B,,/D,/ E,,/E,/G,/E,/ C,/E,/A,,/C,/ | %176
 F,,/=D,/F,/D,/ E,/G,/B,,/E,/ D,/F,/A,/F,/ G,/B,/E,/G,/ | %177
 C,/F,/=D,/B,,/ E,/G,/C,/E,/ =A,,/C/E/C/ =A,/C/F,/A,/ | %178
 B,/B,,/D,/B,,/ E,/G,/C,/E,/ F,,/C,/E,/C,/ =A,,/C,/F,,/A,,/ | %179
 B,,/B,/D/B,/ E,/G,/C,/E,/ E,,/C,/E,/C,/ D,/F,/B,,/D,/ | %180
 G,,/=E,/G,/E,/ F,/A,/C,/F,/ E,/G,/B,/G,/ A,/C/F,/A,/ | %181
 =D,/G,/=E,/C,/ F,/A,/_D,/F,/ B,,/D,/F,/D,/ B,,/D,/G,,/B,,/ | %182
 =E,,/C,/=E,/C,/ F,/A,/D,/F,/ B,,/D,/F,/D,/ B,,/D,/G,,/B,,/ | %183
 C,,/C,/=E,/C,/ F,/A,/D,/F,/ B,,/B,/D/B,/ G,/B,/E,/G,/ | %184
 C,,/C,/=E,/C,/ F,/A,/C,/_E,/ D,/F,/B,,/D,/ C,C,, | %185
 F,,/A,/C/A,/ F,/A,/D,/F,/ B,,/D,/G,,/B,,/ C,C,, | %186
 F,,/F,/A,/F,/ G,/B,/E,/G,/ A,,/A,/C/A,/ G,/B,/C,/C/ | F,,/F,/A,/F,/ B,,/D,/G,,/B,,/ C,,2 z2 | %188
 z/ F,/A,/F,/ D/C/D/D,/ C,/G,/B,/G,/ A,/C/=E,/G,/ | F,,/A,,/C,/A,,/ D,D,, !fermata!C,,4 | z8 | %191
[M:2/2] A,,2 B,,2 C,2 A,,2 | E,2 F,2 G,2 E,2 | A,2 G,2 F,4 | C,4 D,2 B,,2 | E,2 F,2 D,2 E,2 | %196
 A,,2 A,2 G,2 F,2 | E,2 E2 =D2 C2 | =D2 B,2 G,2 A,B, | C2 E2 C2 A,2 | G,2 E,2 A,2 G,2 | %201
 F,2 G,2 A,2 B,2 | E2 E,2 F,2 G,2 | A,4 E,2 A,2 | B,A,G,F, E,2 B,2 | PC2 B,C DCB,A, | %206
 EDCB, A,2 D2- | D2 C2 B,2 E2 | A,G,A,B, CB,CD | E2 E,F, G,2 E,2 | A,2 B,C D2 C2 | B,2 A,2 G,2 C2 | %212
 F,2 G,A, B,2 A,2 | G,2 E,2 A,2 A,,2 | D,2 C,2 D,2 B,,2 | E,2 D,2 C,2 F,2 | B,,4 E,4 | %217
 A,,2 A,2 G,2 F,2 | G,2 F,G, A,G,F,E, | A,4 A,,2 B,,2 | C,2 D,E, F,E,D,C, | B,,2 C,2 D,2 E,2 | %222
 A,,2 A,2 G,2 F,2 | E,2 E2 =D2 C2 | =D2 CD EDCB, | E4 E,2 F,2 | G,2 A,B, CB,A,G, | %227
 F,2 G,2 A,2 B,2 | E,2 F,2 G,2 E,2 | A,2 G,2 F,2 B,2 | E,2 F,G, A,2 G,2 | F,2 E,2 =D,2 G,2 | %232
 C,2 =D,E, F,2 E,2 | =D,2 B,,2 E,2 E,,2 | A,,2 G,,2 A,,2 F,,2 | B,,2 A,,2 G,,2 C,2 | F,,4 B,,4 | %237
 E,,2 A,,2 B,,2 B,,2 | E,,2 E,F, E,D,C,B,, | A,,2 B,,2 C,2 A,,2 | E,2 F,2 G,2 E,2 | A,2 G,2 F,4 | %242
 C,4 D,2 B,,2 | E,2 F,2 D,2 E,2 | A,,2 A,2 G,2 F,2 | E,2 E2 =D2 C2 | =D2 B,2 G,2 A,B, | %247
 C2 E2 C2 A,2 | G,2 E,2 A,2 G,2 | F,2 G,2 A,2 B,2 | E2 E,2 F,2 G,2 | A,4 E,2 A,2 | %252
 B,A,G,F, E,2 B,2 | PC2 B,C DCB,A, | EDCB, A,2 D2- | D2 C2 B,2 E2 | A,G,A,B, CB,CD | %257
 E2 E,F, G,2 E,2 | A,2 B,C D2 C2 | B,2 A,2 G,2 C2 | F,2 G,A, B,2 A,2 | G,2 E,2 A,2 A,,2 | %262
 D,2 C,2 D,2 B,,2 | E,2 D,2 C,2 F,2 | B,,4 E,4 | A,,2 A,2 G,2 F,2 | G,2 F,G, A,G,F,E, | %267
 A,4 A,,2 B,,2 | C,2 D,E, F,E,D,C, | B,,2 C,2 D,2 E,2 | A,,2 A,2 G,2 F,2 | E,2 E2 =D2 C2 | %272
 =D2 CD EDCB, | E4 E,2 F,2 | G,2 A,B, CB,A,G, | F,2 G,2 A,2 B,2 | E,2 F,2 G,2 E,2 | %277
 A,2 G,2 F,2 B,2 | E,2 F,G, A,2 G,2 | F,2 E,2 =D,2 G,2 | C,2 =D,E, F,2 E,2 | =D,2 B,,2 E,2 E,,2 | %282
 A,,2 G,,2 A,,2 F,,2 | B,,2 A,,2 G,,2 C,2 | F,,4 B,,4 | E,,2 A,,2 B,,2 B,,2 | E,,8 | E,,4 z2 E,2 | %288
 D,2 C,D, E,D,C,B,, | C,2 F,2 D,2 E,2 | A,,2 E,2 A,2 B,2 | C2 B,2 A,2 B,2 | C2 B,C DCB,A, | %293
 B,2 F,2 _G,2 A,2 | D,2 D2 C2 B,2 | =A,B,CA, F,4- | F,G,=A,G, B,A,G,F, | B,2 A,2 _G,4 | %298
 F,4- F,E,D,C, | B,,2 B,2- B,A,_G,F, | E,2 E2- ECD=A, | B,F,_G,E, F,2 F,,2 | B,,4 z2 B,2 | %303
 A,2 G,A, B,A,G,F, | E,2 C2 A,2 B,2 | E,4- E,D,C,B,, | D,6 D2 | C2 B,A, A,G,F,E, | %308
 A,2 B,C B,A,G,F, | F8- | F2 ED EDCB, | E8- | E2 DC DCB,A, | DCB,A, G,F,E,D, | C,2 D,E, F,2 G,A, | %315
 B,A,G,F, E,D,C,B,, | A,,2 B,,C, D,2 B,,2 | E,2 E,,2 E,2 F,2 | G,2 F,2 G,2 E,2 | %319
 D,2 C,D, E,D,C,B,, | D,C,B,,A,, A,,G,,F,,E,, | A,,2 A,G, F,E,D,C, | =B,,C,=D,B,, G,,4- | %323
 G,,=A,,=B,,A,, C,B,,A,,G,, | C,2 B,,2 A,,4 | G,,4- G,,F,,E,,=D,, | C,,2 C,2- C,B,,A,,G,, | %327
 F,,2 F,2- F,=D,E,=B,, | C,G,,A,,F,, G,,2 G,,2 | C,,2 D,,E,, F,,G,,A,,B,, | C,2 B,,2 C,2 A,,2 | %331
 G,,2 F,,2 G,,2 E,,2 | A,,2 E,2 A,2 B,2 | C2 B,C DCB,A, | G,2 A,2 D,2 E,2 | A,,2 A,2 G,2 F,2 | %336
 E,2 F,2 G,2 E,2 | =D,2 C,2 D,2 B,,2 | E,,2 B,,2 E,2 F,2 | PG,2 F,G, A,G,F,E, | B,2 C2 A,2 B,2 | %341
 E,2 E2 D2 C2 | B,CDC B,A,G,F, | E,F,G,F, E,D,C,B,, | A,,B,,C,B,, A,,G,,F,,E,, | D,,4 D,4- | %346
 D,2 E,F, E,D,C,B,, | C,8- | C,2 D,E, D,C,B,,A,, | E,4 E,,2 G,,2 | A,,2 A,,/B,,/C, B,,2 B,,/C,/D, | %351
 C,4 z2 D,2 | E,2 D,2 E,2 E,,2 | A,,2 B,,C, B,,A,,G,,F,, | E,,4 z2 E,2 | D,2 C,D, E,D,C,B,, | %356
 C,2 F,2 D,2 E,2 | A,,2 E,2 A,2 B,2 | C2 B,2 A,2 B,2 | C2 B,C DCB,A, | B,2 F,2 _G,2 A,2 | %361
 D,2 D2 C2 B,2 | =A,B,CA, F,4- | F,G,=A,G, B,A,G,F, | B,2 A,2 _G,4 | F,4- F,E,D,C, | %366
 B,,2 B,2- B,A,_G,F, | E,2 E2- ECD=A, | B,F,_G,E, F,2 F,,2 | B,,4 z2 B,2 | A,2 G,A, B,A,G,F, | %371
 E,2 C2 A,2 B,2 | E,4- E,D,C,B,, | D,6 D2 | C2 B,A, A,G,F,E, | A,2 B,C B,A,G,F, | F8- | %377
 F2 ED EDCB, | E8- | E2 DC DCB,A, | DCB,A, G,F,E,D, | C,2 D,E, F,2 G,A, | B,A,G,F, E,D,C,B,, | %383
 A,,2 B,,C, D,2 B,,2 | E,2 E,,2 E,2 F,2 | G,2 F,2 G,2 E,2 | D,2 C,D, E,D,C,B,, | %387
 D,C,B,,A,, A,,G,,F,,E,, | A,,2 A,G, F,E,D,C, | =B,,C,=D,B,, G,,4- | G,,=A,,=B,,A,, C,B,,A,,G,, | %391
 C,2 B,,2 A,,4 | G,,4- G,,F,,E,,=D,, | C,,2 C,2- C,B,,A,,G,, | F,,2 F,2- F,=D,E,=B,, | %395
 C,G,,A,,F,, G,,2 G,,2 | C,,2 D,,E,, F,,G,,A,,B,, | C,2 B,,2 C,2 A,,2 | G,,2 F,,2 G,,2 E,,2 | %399
 A,,2 E,2 A,2 B,2 | C2 B,C DCB,A, | G,2 A,2 D,2 E,2 | A,,2 A,2 G,2 F,2 | E,2 F,2 G,2 E,2 | %404
 =D,2 C,2 D,2 B,,2 | E,,2 B,,2 E,2 F,2 | PG,2 F,G, A,G,F,E, | B,2 C2 A,2 B,2 | E,2 E2 D2 C2 | %409
 B,CDC B,A,G,F, | E,F,G,F, E,D,C,B,, | A,,B,,C,B,, A,,G,,F,,E,, | D,,4 D,4- | D,2 E,F, E,D,C,B,, | %414
 C,8- | C,2 D,E, D,C,B,,A,, | E,4 E,,2 G,,2 | A,,2 A,,/B,,/C, B,,2 B,,/C,/D, | C,4 z2 D,2 | %419
 E,2 D,2 E,2 E,,2 | A,,8 |] %421
V:6
 x6 | x6 | x6 | x6 | x6 | x6 | x6 | x6 | x6 | x6 | x6 | x6 | x6 | x6 | x6 | x6 | x6 | x6 | x6 | %19
 x6 | x6 | x6 | x6 | x6 | x6 | x6 | x6 | x6 | x6 | x6 | x6 | x6 | x6 | x6 | x6 | x6 | x6 | x6 | %38
 x6 |[M:3/4] x6 | x6 | x6 | x6 | x6 | x6 | x6 | x6 | x6 | x6 | x6 | x6 | x6 | x6 | x6 | x6 | x6 | %56
 x6 | x6 | x6 | x6 | x6 | x6 | x6 | x6 | x6 | x6 | x6 | x6 | x6 | x6 | x6 | x6 | x6 | x6 | x6 | %75
 x6 | x6 | x6 | x6 | x6 | x6 | x6 | x6 | x6 | x6 | x6 | x6 | x6 | x6 | x6 | x6 | x6 | x6 | x6 | %94
 x6 | x6 | x6 | x6 | x6 | x6 | x6 | x6 | x6 | x6 | x6 | x6 | x6 | x6 | x6 | x6 | x6 | x6 | E,,6- | %113
 E,,6 | E,,6- | E,,6 | E,,6- | E,,6 | E,,6- | E,,6 | E,,6- | E,,6 | E,,6- | E,,6 | E,,6- | E,,6 | %126
 E,,6- | E,,6 | E,,6- | E,,/ z/ z z2 z2 | x6 | x6 | x6 | x6 | x6 | x6 | x6 | x6 | x6 | x6 | x6 | %141
 x6 | x6 | x6 | x6 | x6 | x6 | x6 | x6 | x6 | x6 | x6 | x6 | x6 | x6 | x6 | x6 | x6 | x6 | x6 | %160
 x6 |[M:4/4] x8 | x8 | x8 | x8 | x8 | x8 | x8 | x8 | x8 | x8 | x8 | x8 | x8 | x8 | x8 | x8 | x8 | %178
 x8 | x8 | x8 | x8 | x8 | x8 | x8 | x8 | x8 | x8 | x8 | x8 | x8 |[M:2/2] x8 | x8 | x8 | x8 | x8 | %196
 x8 | x8 | x8 | x8 | x8 | x8 | x8 | x8 | x8 | x8 | x8 | x8 | x8 | x8 | x8 | x8 | x8 | x8 | x8 | %215
 x8 | x8 | x8 | x8 | x8 | x8 | x8 | x8 | x8 | x8 | x8 | x8 | x8 | x8 | x8 | x8 | x8 | x8 | x8 | %234
 x8 | x8 | x8 | x8 | x8 | x8 | x8 | x8 | x8 | x8 | x8 | x8 | x8 | x8 | x8 | x8 | x8 | x8 | x8 | %253
 x8 | x8 | x8 | x8 | x8 | x8 | x8 | x8 | x8 | x8 | x8 | x8 | x8 | x8 | x8 | x8 | x8 | x8 | x8 | %272
 x8 | x8 | x8 | x8 | x8 | x8 | x8 | x8 | x8 | x8 | x8 | x8 | x8 | x8 | x8 | x8 | x8 | x8 | x8 | %291
 x8 | x8 | x8 | x8 | x8 | x8 | x8 | x8 | x8 | x8 | x8 | x8 | x8 | x8 | x8 | x8 | x8 | x8 | x8 | %310
 x8 | x8 | x8 | x8 | x8 | x8 | x8 | x8 | x8 | x8 | x8 | x8 | x8 | x8 | x8 | x8 | x8 | x8 | x8 | %329
 x8 | x8 | x8 | x8 | x8 | x8 | x8 | x8 | x8 | x8 | x8 | x8 | x8 | x8 | x8 | x8 | x8 | x8 | x8 | %348
 x8 | x8 | x8 | x8 | x8 | x8 | x8 | x8 | x8 | x8 | x8 | x8 | x8 | x8 | x8 | x8 | x8 | x8 | x8 | %367
 x8 | x8 | x8 | x8 | x8 | x8 | x8 | x8 | x8 | x8 | x8 | x8 | x8 | x8 | x8 | x8 | x8 | x8 | x8 | %386
 x8 | x8 | x8 | x8 | x8 | x8 | x8 | x8 | x8 | x8 | x8 | x8 | x8 | x8 | x8 | x8 | x8 | x8 | x8 | %405
 x8 | x8 | x8 | x8 | x8 | x8 | x8 | x8 | x8 | x8 | x8 | x8 | x8 | x8 | x8 | x8 |] %421

